public/img/moods/anxious.svg

<?xml version="1.0" encoding="UTF-8" standalone="no"?>
<!-- Generator: Adobe Illustrator 16.0.0, SVG Export Plug-In . SVG Version: 6.00 Build 0)  -->
<!DOCTYPE svg  PUBLIC '-//W3C//DTD SVG 1.1//EN'  'http://www.w3.org/Graphics/SVG/1.1/DTD/svg11.dtd'>
<svg id="Capa_1" style="enable-background:new 0 0 478.2 478.2" xmlns="http://www.w3.org/2000/svg" xml:space="preserve" height="512px" viewBox="0 0 478.2 478.2" width="512px" version="1.1" y="0px" x="0px" xmlns:xlink="http://www.w3.org/1999/xlink">
	<path d="m170.9 129.9l-63.4 42.8-10.7-15.8 63.4-42.8 10.7 15.8zm-17.9 42.3c-10.5 0-19.1 8.6-19.1 19.1s8.6 19.1 19.1 19.1 19.1-8.6 19.1-19.1-8.6-19.1-19.1-19.1zm325.2 66.9c0 132-107.1 239.1-239.1 239.1s-239.1-107.1-239.1-239.1 107.1-239.1 239.1-239.1c131.9 0 239.1 107.1 239.1 239.1zm-19.2 0c0-122.4-97.5-219.9-219.9-219.9s-219.9 97.5-219.9 219.9 97.5 219.9 219.9 219.9 219.9-97.5 219.9-219.9zm-114.8-47.8c0-10.5-8.601-19.1-19.101-19.1s-19.1 8.6-19.1 19.1 8.6 19.1 19.1 19.1 19.1-8.6 19.1-19.1zm-37-61.3l63.399 42.8 10.7-15.8-63.4-42.8-10.7 15.8zm56.2 204.7c0 26.8-21 47.8-47.801 47.8h-153c-26.8 0-47.8-21-47.8-47.8s21-47.8 47.8-47.8h153c26.7 0 47.8 21 47.8 47.8zm-191.4 9.6h-36.3c3.9 11.5 13.4 19.101 26.8 19.101h9.5v-19.1zm0.2-38.3h-9.6c-11.5 0-23 7.6-26.8 19.1h36.4v-19.1zm57.3 38.3h-38.2v19.1h38.2v-19.1zm0-38.3h-38.2v19.1h38.2v-19.1zm57.4 38.3h-38.2v19.1h38.2v-19.1zm0-38.3h-38.2v19.1h38.2v-19.1zm55.4 38.3h-36.3v19.1h9.6c13.4 0 22.9-7.7 26.7-19.1zm0.1-19.2c-3.8-11.5-13.4-19.1-26.8-19.1h-9.5v19.1h36.3z" fill="#5ab4ae"/>
</svg>

<?xml version="1.0" encoding="iso-8859-1"?>
<!-- Generator: Adobe Illustrator 16.0.0, SVG Export Plug-In . SVG Version: 6.00 Build 0)  -->
<!DOCTYPE svg PUBLIC "-//W3C//DTD SVG 1.1//EN" "http://www.w3.org/Graphics/SVG/1.1/DTD/svg11.dtd">
<svg xmlns="http://www.w3.org/2000/svg" xmlns:xlink="http://www.w3.org/1999/xlink" version="1.1" id="Capa_1" x="0px" y="0px" width="512px" height="512px" viewBox="0 0 478.2 478.2" style="enable-background:new 0 0 478.2 478.2;" xml:space="preserve">
<g>
	<path d="M170.9,129.9l-63.4,42.8l-10.7-15.8l63.4-42.8L170.9,129.9z M153,172.2c-10.5,0-19.1,8.6-19.1,19.1s8.6,19.1,19.1,19.1   s19.1-8.6,19.1-19.1S163.5,172.2,153,172.2z M478.2,239.1C478.2,371.1,371.1,478.2,239.1,478.2C107.1,478.2,0,371.1,0,239.1   C0,107.1,107.1,0,239.1,0C371,0,478.2,107.1,478.2,239.1z M459,239.1C459,116.7,361.5,19.2,239.1,19.2   C116.7,19.2,19.2,116.7,19.2,239.1C19.2,361.5,116.7,459,239.1,459C361.5,459,459,361.5,459,239.1z M344.2,191.3   c0-10.5-8.601-19.1-19.101-19.1s-19.1,8.6-19.1,19.1s8.6,19.1,19.1,19.1S344.2,201.8,344.2,191.3z M307.2,130l63.399,42.8   l10.7-15.8L317.9,114.2L307.2,130z M363.4,334.7c0,26.8-21,47.8-47.801,47.8h-153c-26.8,0-47.8-21-47.8-47.8s21-47.8,47.8-47.8h153   C342.3,286.9,363.4,307.9,363.4,334.7z M172,344.3h-36.3c3.9,11.5,13.4,19.101,26.8,19.101h9.5V344.3z M172.2,306h-9.6   c-11.5,0-23,7.6-26.8,19.1h36.3h0.1V306z M229.5,344.3h-38.2V363.4h38.2V344.3z M229.5,306h-38.2v19.1h38.2V306z M286.9,344.3   h-38.2V363.4h38.2V344.3z M286.9,306h-38.2v19.1h38.2V306z M342.3,344.3H306V363.4h9.6C329,363.4,338.5,355.7,342.3,344.3z    M342.4,325.1C338.6,313.6,329,306,315.6,306h-9.5v19.1H342.4z" fill="#5ab4ae"/>
</g>
<g>
</g>
<g>
</g>
<g>
</g>
<g>
</g>
<g>
</g>
<g>
</g>
<g>
</g>
<g>
</g>
<g>
</g>
<g>
</g>
<g>
</g>
<g>
</g>
<g>
</g>
<g>
</g>
<g>
</g>
</svg>
